X: 39290
T: Take A Message To Julie
R: reel
M: 4/4
K: Edorian
EBAG A~E3|GBdB c~A3|EBAG A~E3|GBd(G G)BdG|
EBAG A~E3|GBdB c~A3|edBA B~E3|1 DE (3FED ~E3D:|2 DEFD E3d||
|:e~B3 GBeB|d~A3 GAdA|=c~G3 EGcG|cAA d2 AeA|
e~B3 GBeB|d~A3 GAdA|EDGB A~F3|1 DE (3FED E3d:|2 DE (3FED ~E3D||

